;FLAVOR:Marlin
;TIME:1699
;Filament used: 1.04548m
;Layer height: 0.15
;MINX:102.078
;MINY:107.903
;MINZ:0.12
;MAXX:132.922
;MAXY:127.097
;MAXZ:9.87
;Generated with Cura_SteamEngine 4.6.2
M140 S60
M105
M190 S60
M104 S210
M105
M109 S210
M82 ;absolute extrusion mode
M201 X500.00 Y500.00 Z100.00 E5000.00 ;Setup machine max acceleration
M203 X500.00 Y500.00 Z10.00 E50.00 ;Setup machine max feedrate
M204 P500.00 R1000.00 T500.00 ;Setup Print/Retract/Travel acceleration
M205 X8.00 Y8.00 Z0.40 E5.00 ;Setup Jerk
M220 S100 ;Reset Feedrate
M221 S100 ;Reset Flowrate

G28 ;Home

G92 E0 ;Reset Extruder
G1 Z2.0 F3000 ;Move Z Axis up
G1 X10.1 Y20 Z0.28 F5000.0 ;Move to start position
G1 X10.1 Y200.0 Z0.28 F1500.0 E15 ;Draw the first line
G1 X10.4 Y200.0 Z0.28 F5000.0 ;Move to side a little
G1 X10.4 Y20 Z0.28 F1500.0 E30 ;Draw the second line
G92 E0 ;Reset Extruder
G1 Z2.0 F3000 ;Move Z Axis up

G92 E0
G92 E0
G1 F2700 E-5
;LAYER_COUNT:66
;LAYER:0
M107
;MESH:Ender 3 Bedclips modified.stl
G0 F6000 X114.078 Y126.297 Z0.12
;TYPE:WALL-INNER
G1 F2700 E0
G1 F1200 X102.878 Y126.297 E0.22351
G1 X102.878 Y108.703 E0.57462
G1 X103.857 Y108.703 E0.59415
G1 X103.876 Y125.713 E0.93361
G1 X113.081 Y125.713 E1.1173
G1 X113.081 Y108.703 E1.45675
G1 X114.078 Y108.703 E1.47665
G1 X114.078 Y126.297 E1.82776
G0 F6000 X114.478 Y126.697
G1 F1200 X102.478 Y126.697 E2.06723
G1 X102.478 Y108.303 E2.4343
G1 X104.257 Y108.303 E2.4698
G1 X104.276 Y125.313 E2.80926
G1 X112.681 Y125.313 E2.97699
G1 X112.681 Y108.303 E3.31644
G1 X114.478 Y108.303 E3.3523
G1 X114.478 Y126.697 E3.71937
G0 F6000 X114.878 Y127.097
;TYPE:WALL-OUTER
G1 F1200 X102.078 Y127.097 E3.97481
G1 X102.078 Y107.903 E4.35785
G1 X104.657 Y107.903 E4.40932
G1 X104.676 Y124.913 E4.74877
G1 X112.281 Y124.913 E4.90054
G1 X112.281 Y107.903 E5.23999
G1 X114.878 Y107.903 E5.29181
G1 X114.878 Y127.097 E5.67485
G0 F6000 X114.608 Y126.827
G0 X113.968 Y125.907
G0 X113.688 Y125.907
;TYPE:SKIN
G1 F1200 X113.471 Y125.907 E5.67918
G1 X113.471 Y109.093 E6.01472
G1 X113.688 Y109.093 E6.01905
G1 X113.688 Y125.907 E6.3546
G1 F2700 E1.3546
G0 F6000 X113.968 Y125.907
G0 X113.896 Y108.885
G0 X113.263 Y108.885
G0 X113.251 Y125.907
G0 X103.766 Y125.907
G0 X103.486 Y125.907
G1 F2700 E6.3546
G1 F1200 X103.268 Y125.907 E6.35895
G1 X103.268 Y109.093 E6.69449
G1 X103.467 Y109.093 E6.69846
G1 X103.486 Y125.907 E7.034
G0 F6000 X103.661 Y126.005
;TYPE:SKIN
G1 F1200 X103.791 Y126.135 E7.03583
G0 F6000 X103.811 Y125.872
G1 F1200 X104.074 Y126.135 E7.03955
G0 F6000 X104.093 Y125.872
G1 F1200 X104.356 Y126.135 E7.04326
G0 F6000 X104.376 Y125.872
G1 F1200 X104.639 Y126.135 E7.04697
G0 F6000 X104.659 Y125.872
G1 F1200 X104.922 Y126.135 E7.05068
G0 F6000 X104.942 Y125.872
G1 F1200 X105.205 Y126.135 E7.05439
G0 F6000 X105.225 Y125.872
G1 F1200 X105.488 Y126.135 E7.0581
G0 F6000 X105.508 Y125.872
G1 F1200 X105.771 Y126.135 E7.06181
G0 F6000 X105.79 Y125.872
G1 F1200 X106.053 Y126.135 E7.06552
G0 F6000 X106.073 Y125.872
G1 F1200 X106.336 Y126.135 E7.06924
G0 F6000 X106.356 Y125.872
G1 F1200 X106.619 Y126.135 E7.07295
G0 F6000 X106.639 Y125.872
G1 F1200 X106.902 Y126.135 E7.07666
G0 F6000 X106.922 Y125.872
G1 F1200 X107.185 Y126.135 E7.08037
G0 F6000 X107.205 Y125.872
G1 F1200 X107.468 Y126.135 E7.08408
G0 F6000 X107.488 Y125.872
G1 F1200 X107.751 Y126.135 E7.08779
G0 F6000 X107.77 Y125.872
G1 F1200 X108.033 Y126.135 E7.0915
G0 F6000 X108.053 Y125.872
G1 F1200 X108.316 Y126.135 E7.09521
G0 F6000 X108.336 Y125.872
G1 F1200 X108.599 Y126.135 E7.09893
G0 F6000 X108.619 Y125.872
G1 F1200 X108.882 Y126.135 E7.10264
G0 F6000 X108.902 Y125.872
G1 F1200 X109.165 Y126.135 E7.10635
G0 F6000 X109.185 Y125.872
G1 F1200 X109.448 Y126.135 E7.11006
G0 F6000 X109.467 Y125.872
G1 F1200 X109.73 Y126.135 E7.11377
G0 F6000 X109.75 Y125.872
G1 F1200 X110.013 Y126.135 E7.11748
G0 F6000 X110.033 Y125.872
G1 F1200 X110.296 Y126.135 E7.12119
G0 F6000 X110.316 Y125.872
G1 F1200 X110.579 Y126.135 E7.1249
G0 F6000 X110.599 Y125.872
G1 F1200 X110.862 Y126.135 E7.12862
G0 F6000 X110.882 Y125.872
G1 F1200 X111.145 Y126.135 E7.13233
G0 F6000 X111.164 Y125.872
G1 F1200 X111.428 Y126.135 E7.13604
G0 F6000 X111.447 Y125.872
G1 F1200 X111.71 Y126.135 E7.13976
G0 F6000 X111.73 Y125.872
G1 F1200 X111.993 Y126.135 E7.14347
G0 F6000 X112.013 Y125.872
G1 F1200 X112.276 Y126.135 E7.14718
G0 F6000 X112.296 Y125.872
G1 F1200 X112.559 Y126.135 E7.15089
G0 F6000 X112.579 Y125.872
G1 F1200 X112.842 Y126.135 E7.1546
G0 F6000 X112.862 Y125.872
G1 F1200 X113.125 Y126.135 E7.15831
G0 F6000 X113.296 Y126.024
G1 F1200 X113.144 Y125.872 E7.16046
G0 F6000 X112.891 Y125.523
G1 F2700 E2.16046
G0 F6000 X113.263 Y108.885
G0 X113.896 Y108.885
G0 X114.658 Y126.297
G0 X115.743 Y126.297
G0 X119.257 Y126.297
G0 X120.342 Y126.297
G0 X120.922 Y126.297
;TYPE:WALL-INNER
G1 F2700 E7.16046
G1 F1200 X120.922 Y108.703 E7.51156
G1 X121.903 Y108.703 E7.53114
G1 X121.922 Y123.02 E7.81685
G1 X131.125 Y123.02 E8.00051
G1 X131.125 Y108.703 E8.28622
G1 X132.122 Y108.703 E8.30612
G1 X132.122 Y126.297 E8.65722
G1 X120.922 Y126.297 E8.88073
G0 F6000 X120.522 Y126.697
G1 F1200 X120.522 Y108.303 E9.2478
G1 X122.302 Y108.303 E9.28333
G1 X122.321 Y122.62 E9.56904
G1 X130.725 Y122.62 E9.73675
G1 X130.725 Y108.303 E10.02246
G1 X132.522 Y108.303 E10.05832
G1 X132.522 Y126.697 E10.42539
G1 X120.522 Y126.697 E10.66487
G0 F6000 X120.122 Y127.097
;TYPE:WALL-OUTER
G1 F1200 X120.122 Y107.903 E11.0479
G1 X122.701 Y107.903 E11.09937
G1 X122.72 Y122.22 E11.38508
G1 X130.325 Y122.22 E11.53685
G1 X130.325 Y107.903 E11.82256
G1 X132.922 Y107.903 E11.87438
G1 X132.922 Y127.097 E12.25742
G1 X120.122 Y127.097 E12.51286
G0 F6000 X120.392 Y126.827
G0 X121.032 Y125.907
G0 X121.312 Y125.907
;TYPE:SKIN
G1 F1200 X121.312 Y109.093 E12.8484
G1 X121.513 Y109.093 E12.85241
G1 X121.532 Y123.41 E13.13812
G1 X131.515 Y123.41 E13.33734
G1 X131.515 Y109.093 E13.62306
G1 X131.732 Y109.093 E13.62739
G1 X131.732 Y125.907 E13.96293
G1 X121.312 Y125.907 E14.17087
G0 F6000 X121.786 Y125.746
G1 F1200 X121.471 Y125.431 E14.17976
G0 F6000 X121.471 Y124.865
G1 F1200 X122.352 Y125.746 E14.20462
G0 F6000 X122.917 Y125.746
G1 F1200 X121.471 Y124.3 E14.24543
G0 F6000 X121.471 Y123.734
G1 F1200 X123.483 Y125.746 E14.30222
G0 F6000 X124.049 Y125.746
G1 F1200 X121.872 Y123.569 E14.36366
G0 F6000 X122.438 Y123.569
G1 F1200 X124.614 Y125.746 E14.42508
G0 F6000 X125.18 Y125.746
G1 F1200 X123.004 Y123.569 E14.48651
G0 F6000 X123.569 Y123.569
G1 F1200 X125.746 Y125.746 E14.54795
G0 F6000 X126.311 Y125.746
G1 F1200 X124.135 Y123.569 E14.60937
G0 F6000 X124.701 Y123.569
G1 F1200 X126.878 Y125.746 E14.67081
G0 F6000 X127.443 Y125.746
G1 F1200 X125.266 Y123.569 E14.73225
G0 F6000 X125.832 Y123.569
G1 F1200 X128.009 Y125.746 E14.79369
G0 F6000 X128.575 Y125.746
G1 F1200 X126.398 Y123.569 E14.85513
G0 F6000 X126.963 Y123.569
G1 F1200 X129.141 Y125.746 E14.91658
G0 F6000 X129.706 Y125.746
G1 F1200 X127.529 Y123.569 E14.97802
G0 F6000 X128.095 Y123.569
G1 F1200 X130.272 Y125.746 E15.03946
G0 F6000 X130.838 Y125.746
G1 F1200 X128.66 Y123.569 E15.10092
G0 F6000 X129.226 Y123.569
G1 F1200 X131.403 Y125.746 E15.16236
G0 F6000 X131.571 Y125.348
G1 F1200 X129.792 Y123.569 E15.21256
G0 F6000 X130.357 Y123.569
G1 F1200 X131.571 Y124.783 E15.24683
G0 F6000 X131.571 Y124.217
G1 F1200 X130.923 Y123.569 E15.26511
G0 F6000 X131.489 Y123.569
G1 F1200 X131.571 Y123.651 E15.26743
G0 F6000 X132.312 Y123.651
G1 F2700 E10.26743
;MESH:NONMESH
G0 F300 X132.312 Y123.651 Z0.27
G0 F6000 X131.94 Y126.115
G0 X120.342 Y126.297
G0 X119.257 Y126.297
G0 X115.743 Y126.297
G0 X114.658 Y126.297
G0 X114.078 Y126.297
;TIME_ELAPSED:51.278202
;LAYER:1
M140 S60
M106 S85
;TYPE:WALL-INNER
;MESH:Ender 3 Bedclips modified.stl
G1 F2700 E15.26743
G1 F1950 X102.878 Y126.297 E15.54681
G1 X102.878 Y108.703 E15.9857
G1 X103.876 Y108.703 E16.01059
G1 X103.876 Y125.713 E16.43491
G1 X113.081 Y125.713 E16.66453
G1 X113.081 Y108.703 E17.08884
G1 X114.078 Y108.703 E17.11371
G1 X114.078 Y126.297 E17.5526
G0 F9750 X114.478 Y126.697
G1 F1950 X102.478 Y126.697 E17.85194
G1 X102.478 Y108.303 E18.31078
G1 X104.276 Y108.303 E18.35563
G1 X104.276 Y125.313 E18.77995
G1 X112.681 Y125.313 E18.98961
G1 X112.681 Y108.303 E19.41393
G1 X114.478 Y108.303 E19.45875
G1 X114.478 Y126.697 E19.91759
G0 F9750 X114.878 Y127.097
;TYPE:WALL-OUTER
G1 F1950 X102.078 Y127.097 E20.23689
G1 X102.078 Y107.903 E20.71569
G1 X104.676 Y107.903 E20.78049
G1 X104.676 Y124.913 E21.20481
G1 X112.281 Y124.913 E21.39452
G1 X112.281 Y107.903 E21.81883
G1 X114.878 Y107.903 E21.88362
G1 X114.878 Y127.097 E22.36241
G0 F9750 X114.608 Y126.827
G0 X113.968 Y125.907
G0 X113.688 Y125.907
;TYPE:SKIN
G1 F1950 X113.471 Y125.907 E22.36783
G1 X113.471 Y109.093 E22.78725
G1 X113.688 Y109.093 E22.79267
G1 X113.688 Y125.907 E23.21209
G1 F2700 E18.21209
G0 F9750 X113.968 Y125.907
G0 X113.896 Y108.885
G0 X113.263 Y108.885
G0 X113.251 Y125.907
G0 X103.766 Y125.907
G0 X103.486 Y125.907
G1 F2700 E23.21209
G1 F1950 X103.268 Y125.907 E23.21753
G1 X103.268 Y109.093 E23.63696
G1 X103.486 Y109.093 E23.6424
G1 X103.486 Y125.907 E24.06182
G0 F9750 X103.661 Y126.007
;TYPE:SKIN
G1 F1950 X103.795 Y125.872 E24.0642
G0 F9750 X103.815 Y126.135
G1 F1950 X104.078 Y125.872 E24.06883
G0 F9750 X104.098 Y126.135
G1 F1950 X104.361 Y125.872 E24.07347
G0 F9750 X104.38 Y126.135
G1 F1950 X104.644 Y125.872 E24.07812
G0 F9750 X104.663 Y126.135
G1 F1950 X104.926 Y125.872 E24.08276
G0 F9750 X104.946 Y126.135
G1 F1950 X105.209 Y125.872 E24.0874
G0 F9750 X105.229 Y126.135
G1 F1950 X105.492 Y125.872 E24.09204
G0 F9750 X105.512 Y126.135
G1 F1950 X105.775 Y125.872 E24.09668
G0 F9750 X105.795 Y126.135
G1 F1950 X106.058 Y125.872 E24.10132
G0 F9750 X106.078 Y126.135
G1 F1950 X106.341 Y125.872 E24.10596
G0 F9750 X106.36 Y126.135
G1 F1950 X106.623 Y125.872 E24.11059
G0 F9750 X106.643 Y126.135
G1 F1950 X106.906 Y125.872 E24.11523
G0 F9750 X106.926 Y126.135
G1 F1950 X107.189 Y125.872 E24.11987
G0 F9750 X107.209 Y126.135
G1 F1950 X107.472 Y125.872 E24.12451
G0 F9750 X107.492 Y126.135
G1 F1950 X107.755 Y125.872 E24.12915
G0 F9750 X107.775 Y126.135
G1 F1950 X108.038 Y125.872 E24.13379
G0 F9750 X108.057 Y126.135
G1 F1950 X108.32 Y125.872 E24.13843
G0 F9750 X108.34 Y126.135
G1 F1950 X108.603 Y125.872 E24.14307
G0 F9750 X108.623 Y126.135
G1 F1950 X108.886 Y125.872 E24.14771
G0 F9750 X108.906 Y126.135
G1 F1950 X109.169 Y125.872 E24.15235
G0 F9750 X109.189 Y126.135
G1 F1950 X109.452 Y125.872 E24.15698
G0 F9750 X109.472 Y126.135
G1 F1950 X109.735 Y125.872 E24.16162
G0 F9750 X109.754 Y126.135
G1 F1950 X110.018 Y125.872 E24.16627
G0 F9750 X110.037 Y126.135
G1 F1950 X110.3 Y125.872 E24.17091
G0 F9750 X110.32 Y126.135
G1 F1950 X110.583 Y125.872 E24.17555
G0 F9750 X110.603 Y126.135
G1 F1950 X110.866 Y125.872 E24.18019
G0 F9750 X110.886 Y126.135
G1 F1950 X111.149 Y125.872 E24.18483
G0 F9750 X111.169 Y126.135
G1 F1950 X111.432 Y125.872 E24.18947
G0 F9750 X111.452 Y126.135
G1 F1950 X111.715 Y125.872 E24.19411
G0 F9750 X111.734 Y126.135
G1 F1950 X111.997 Y125.872 E24.19874
G0 F9750 X112.017 Y126.135
G1 F1950 X112.28 Y125.872 E24.20338
G0 F9750 X112.3 Y126.135
G1 F1950 X112.563 Y125.872 E24.20802
G0 F9750 X112.583 Y126.135
G1 F1950 X112.846 Y125.872 E24.21266
G0 F9750 X112.866 Y126.135
G1 F1950 X113.129 Y125.872 E24.2173
G0 F9750 X113.296 Y125.988
G1 F1950 X113.149 Y126.135 E24.21989
G0 F9750 X113.149 Y126.487
G1 F2700 E19.21989
G0 F9750 X114.658 Y126.297
G0 X115.743 Y126.297
G0 X119.257 Y126.297
G0 X120.342 Y126.297
G0 X120.922 Y126.297
;TYPE:WALL-INNER
G1 F2700 E24.21989
G1 F1950 X120.922 Y108.703 E24.65878
G1 X121.92 Y108.703 E24.68367
G1 X121.92 Y123.02 E25.04081
G1 X131.125 Y123.02 E25.27043
G1 X131.125 Y108.703 E25.62757
G1 X132.122 Y108.703 E25.65244
G1 X132.122 Y126.297 E26.09133
G1 X120.922 Y126.297 E26.37071
G0 F9750 X120.522 Y126.697
G1 F1950 X120.522 Y108.303 E26.82955
G1 X122.32 Y108.303 E26.8744
G1 X122.32 Y122.62 E27.23154
G1 X130.725 Y122.62 E27.4412
G1 X130.725 Y108.303 E27.79834
G1 X132.522 Y108.303 E27.84317
G1 X132.522 Y126.697 E28.30201
G1 X120.522 Y126.697 E28.60135
G0 F9750 X120.122 Y127.097
;TYPE:WALL-OUTER
G1 F1950 X120.122 Y107.903 E29.08015
G1 X122.72 Y107.903 E29.14495
G1 X122.72 Y122.22 E29.50209
G1 X130.325 Y122.22 E29.6918
G1 X130.325 Y107.903 E30.04894
G1 X132.922 Y107.903 E30.11372
G1 X132.922 Y127.097 E30.59252
G1 X120.122 Y127.097 E30.91182
G0 F9750 X120.392 Y126.827
G0 X121.032 Y125.907
G0 X121.312 Y125.907
;TYPE:SKIN
G1 F1950 X121.312 Y109.093 E31.33124
G1 X121.53 Y109.093 E31.33668
G1 X121.53 Y123.41 E31.69382
G1 X131.515 Y123.41 E31.9429
G1 X131.515 Y109.093 E32.30004
G1 X131.732 Y109.093 E32.30545
G1 X131.732 Y125.907 E32.72488
G1 X121.312 Y125.907 E32.9848
G0 F9750 X121.032 Y125.907
G0 X121.032 Y124.035
G0 X121.472 Y124.035
G1 F1950 X121.938 Y123.569 E33.00124
G0 F9750 X122.504 Y123.569
G1 F1950 X121.472 Y124.6 E33.03763
G0 F9750 X121.472 Y125.166
G1 F1950 X123.069 Y123.569 E33.09397
G0 F9750 X123.635 Y123.569
G1 F1950 X121.472 Y125.732 E33.17028
G0 F9750 X122.023 Y125.746
G1 F1950 X124.201 Y123.569 E33.24709
G0 F9750 X124.766 Y123.569
G1 F1950 X122.588 Y125.746 E33.32391
G0 F9750 X123.154 Y125.746
G1 F1950 X125.332 Y123.569 E33.40073
G0 F9750 X125.898 Y123.569
G1 F1950 X123.72 Y125.746 E33.47755
G0 F9750 X124.286 Y125.746
G1 F1950 X126.463 Y123.569 E33.55434
G0 F9750 X127.029 Y123.569
G1 F1950 X124.851 Y125.746 E33.63116
G0 F9750 X125.417 Y125.746
G1 F1950 X127.595 Y123.569 E33.70798
G0 F9750 X128.16 Y123.569
G1 F1950 X125.983 Y125.746 E33.78478
G0 F9750 X126.548 Y125.747
G1 F1950 X128.726 Y123.569 E33.86161
G0 F9750 X129.292 Y123.569
G1 F1950 X127.113 Y125.747 E33.93847
G0 F9750 X127.679 Y125.747
G1 F1950 X129.858 Y123.569 E34.01532
G0 F9750 X130.423 Y123.569
G1 F1950 X128.245 Y125.747 E34.09215
G0 F9750 X128.81 Y125.747
G1 F1950 X130.989 Y123.569 E34.16901
G0 F9750 X131.555 Y123.569
G1 F1950 X129.376 Y125.747 E34.24586
G0 F9750 X129.942 Y125.747
G1 F1950 X131.571 Y124.118 E34.30333
G0 F9750 X131.571 Y124.684
G1 F1950 X130.507 Y125.747 E34.34084
G0 F9750 X131.073 Y125.747
G1 F1950 X131.571 Y125.249 E34.35841
G0 F9750 X132.312 Y125.249
G1 F2700 E29.35841
;MESH:NONMESH
G0 F300 X132.312 Y125.249 Z0.42
G0 F9750 X131.94 Y126.115
G0 X120.342 Y126.297
G0 X119.257 Y126.297
G0 X115.743 Y126.297
G0 X114.658 Y126.297
G0 X114.078 Y126.297
;TIME_ELAPSED:84.838523
;LAYER:2
M106 S170
;TYPE:WALL-INNER
;MESH:Ender 3 Bedclips modified.stl
G1 F2700 E34.35841
G1 X102.878 Y126.297 E34.6378
G1 X102.878 Y108.703 E35.07668
G1 X103.876 Y108.703 E35.10158
G1 X103.876 Y125.713 E35.52589
G1 X113.081 Y125.713 E35.75551
G1 X113.081 Y108.703 E36.17983
G1 X114.078 Y108.703 E36.2047
G1 X114.078 Y126.297 E36.64358
G0 F13500 X114.478 Y126.697
G1 F2700 X102.478 Y126.697 E36.94292
G1 X102.478 Y108.303 E37.40176
G1 X104.276 Y108.303 E37.44662
G1 X104.276 Y125.313 E37.87093
G1 X112.681 Y125.313 E38.0806
G1 X112.681 Y108.303 E38.50491
G1 X114.478 Y108.303 E38.54974
G1 X114.478 Y126.697 E39.00858
G0 F13500 X114.878 Y127.097
;TYPE:WALL-OUTER
G1 F2700 X102.078 Y127.097 E39.32788
G1 X102.078 Y107.903 E39.80667
G1 X104.676 Y107.903 E39.87148
G1 X104.676 Y124.913 E40.29579
G1 X112.281 Y124.913 E40.4855
G1 X112.281 Y107.903 E40.90982
G1 X114.878 Y107.903 E40.9746
G1 X114.878 Y127.097 E41.4534
G0 F13500 X114.608 Y126.827
G0 X113.968 Y125.907
G0 X113.688 Y125.907
;TYPE:SKIN
G1 F2700 X113.471 Y125.907 E41.45881
G1 X113.471 Y109.093 E41.87824
G1 X113.688 Y109.093 E41.88365
G1 X113.688 Y125.907 E42.30308
G1 F2700 E37.30308
G0 F13500 X113.968 Y125.907
G0 X113.896 Y108.885
G0 X113.263 Y108.885
