;FLAVOR:Marlin
;TIME:5686
;Filament used: 3.49947m
;Layer height: 0.15
;MINX:85
;MINY:104.347
;MINZ:0.12
;MAXX:150
;MAXY:129.8
;MAXZ:24.87
;Generated with Cura_SteamEngine 4.6.2
M140 S60
M105
M190 S60
M104 S210
M105
M109 S210
M82 ;absolute extrusion mode
M201 X500.00 Y500.00 Z100.00 E5000.00 ;Setup machine max acceleration
M203 X500.00 Y500.00 Z10.00 E50.00 ;Setup machine max feedrate
M204 P500.00 R1000.00 T500.00 ;Setup Print/Retract/Travel acceleration
M205 X8.00 Y8.00 Z0.40 E5.00 ;Setup Jerk
M220 S100 ;Reset Feedrate
M221 S100 ;Reset Flowrate

G28 ;Home

G92 E0 ;Reset Extruder
G1 Z2.0 F3000 ;Move Z Axis up
G1 X10.1 Y20 Z0.28 F5000.0 ;Move to start position
G1 X10.1 Y200.0 Z0.28 F1500.0 E15 ;Draw the first line
G1 X10.4 Y200.0 Z0.28 F5000.0 ;Move to side a little
G1 X10.4 Y20 Z0.28 F1500.0 E30 ;Draw the second line
G92 E0 ;Reset Extruder
G1 Z2.0 F3000 ;Move Z Axis up

G92 E0
G92 E0
G1 F2700 E-5
;LAYER_COUNT:166
;LAYER:0
M107
;MESH:Ender_3_Bedclip_4mm_3.stl
G0 F6000 X120 Y129 Z0.12
;TYPE:WALL-INNER
G1 F2700 E0
G1 F1200 X120 Y106 E0.45899
G1 X131.2 Y106 E0.6825
G1 X131.2 Y129 E1.14149
G1 X120 Y129 E1.365
G0 F6000 X119.6 Y129.4
G1 F1200 X119.6 Y105.6 E1.83995
G1 X131.6 Y105.6 E2.07942
G1 X131.6 Y129.4 E2.55438
G1 X119.6 Y129.4 E2.79385
G0 F6000 X119.2 Y129.8
;TYPE:WALL-OUTER
G1 F1200 X119.2 Y105.2 E3.28477
G1 X132 Y105.2 E3.54021
G1 X132 Y129.8 E4.03113
G1 X119.2 Y129.8 E4.28657
G0 F6000 X119.47 Y129.53
G0 X120.11 Y128.61
G0 X120.39 Y128.61
;TYPE:SKIN
G1 F1200 X120.39 Y106.39 E4.72999
G1 X130.81 Y106.39 E4.93793
G1 X130.81 Y128.61 E5.38136
G1 X120.39 Y128.61 E5.5893
G0 F6000 X121.095 Y128.449
G1 F1200 X120.548 Y127.902 E5.60474
G0 F6000 X120.548 Y127.337
G1 F1200 X121.661 Y128.449 E5.63613
G0 F6000 X122.226 Y128.449
G1 F1200 X120.548 Y126.771 E5.68349
G0 F6000 X120.548 Y126.205
G1 F1200 X122.792 Y128.449 E5.74682
G0 F6000 X123.358 Y128.449
G1 F1200 X120.548 Y125.64 E5.82611
G0 F6000 X120.548 Y125.074
G1 F1200 X123.923 Y128.449 E5.92136
G0 F6000 X124.489 Y128.449
G1 F1200 X120.548 Y124.508 E6.03258
G0 F6000 X120.548 Y123.943
G1 F1200 X125.055 Y128.449 E6.15977
G0 F6000 X125.621 Y128.449
G1 F1200 X120.548 Y123.377 E6.30292
G0 F6000 X120.548 Y122.811
G1 F1200 X126.186 Y128.449 E6.46204
G0 F6000 X126.752 Y128.449
G1 F1200 X120.548 Y122.246 E6.63712
G0 F6000 X120.548 Y121.68
G1 F1200 X127.318 Y128.449 E6.82817
G0 F6000 X127.883 Y128.449
G1 F1200 X120.548 Y121.114 E7.03518
G0 F6000 X120.548 Y120.548
G1 F1200 X128.449 Y128.449 E7.25816
G0 F6000 X129.015 Y128.449
G1 F1200 X120.548 Y119.983 E7.4971
G0 F6000 X120.548 Y119.417
G1 F1200 X129.58 Y128.449 E7.75201
G0 F6000 X130.146 Y128.449
G1 F1200 X120.548 Y118.851 E8.02288
G0 F6000 X120.548 Y118.286
G1 F1200 X130.649 Y128.386 E8.30794
G0 F6000 X130.649 Y127.82
G1 F1200 X120.548 Y117.72 E8.593
G0 F6000 X120.548 Y117.154
G1 F1200 X130.649 Y127.255 E8.87807
G0 F6000 X130.649 Y126.689
G1 F1200 X120.548 Y116.589 E9.16313
G0 F6000 X120.548 Y116.023
G1 F1200 X130.649 Y126.123 E9.44819
G0 F6000 X130.649 Y125.558
G1 F1200 X120.548 Y115.457 E9.73326
G0 F6000 X120.548 Y114.892
G1 F1200 X130.649 Y124.992 E10.01832
G0 F6000 X130.649 Y124.426
G1 F1200 X120.548 Y114.326 E10.30337
G0 F6000 X120.548 Y113.76
G1 F1200 X130.649 Y123.861 E10.58845
G0 F6000 X130.649 Y123.295
G1 F1200 X120.548 Y113.195 E10.8735
G0 F6000 X120.548 Y112.629
G1 F1200 X130.649 Y122.729 E11.15856
G0 F6000 X130.649 Y122.164
G1 F1200 X120.548 Y112.063 E11.44363
G0 F6000 X120.548 Y111.498
G1 F1200 X130.649 Y121.598 E11.72869
G0 F6000 X130.649 Y121.032
G1 F1200 X120.548 Y110.932 E12.01375
G0 F6000 X120.548 Y110.366
G1 F1200 X130.649 Y120.466 E12.29881
G0 F6000 X130.649 Y119.901
G1 F1200 X120.548 Y109.8 E12.58388
G0 F6000 X120.548 Y109.235
G1 F1200 X130.649 Y119.335 E12.86894
G0 F6000 X130.649 Y118.769
G1 F1200 X120.548 Y108.669 E13.154
G0 F6000 X120.548 Y108.103
G1 F1200 X130.649 Y118.204 E13.43907
G0 F6000 X130.649 Y117.638
G1 F1200 X120.548 Y107.538 E13.72413
G0 F6000 X120.548 Y106.972
G1 F1200 X130.649 Y117.072 E14.00918
G0 F6000 X130.649 Y116.507
G1 F1200 X120.691 Y106.549 E14.29022
G0 F6000 X121.257 Y106.549
G1 F1200 X130.649 Y115.941 E14.55528
G0 F6000 X130.649 Y115.375
G1 F1200 X121.823 Y106.549 E14.80437
G0 F6000 X122.388 Y106.549
G1 F1200 X130.649 Y114.81 E15.03751
G0 F6000 X130.649 Y114.244
G1 F1200 X122.954 Y106.549 E15.25468
G0 F6000 X123.52 Y106.549
G1 F1200 X130.649 Y113.678 E15.45588
G0 F6000 X130.649 Y113.113
G1 F1200 X124.085 Y106.549 E15.64113
G0 F6000 X124.651 Y106.549
G1 F1200 X130.649 Y112.547 E15.81041
G0 F6000 X130.649 Y111.981
G1 F1200 X125.217 Y106.549 E15.96371
G0 F6000 X125.782 Y106.549
G1 F1200 X130.649 Y111.415 E16.10105
G0 F6000 X130.649 Y110.85
G1 F1200 X126.348 Y106.549 E16.22244
G0 F6000 X126.914 Y106.549
G1 F1200 X130.649 Y110.284 E16.32785
G0 F6000 X130.649 Y109.718
G1 F1200 X127.48 Y106.549 E16.41728
G0 F6000 X128.045 Y106.549
G1 F1200 X130.649 Y109.153 E16.49077
G0 F6000 X130.649 Y108.587
G1 F1200 X128.611 Y106.549 E16.54829
G0 F6000 X129.177 Y106.549
G1 F1200 X130.649 Y108.021 E16.58983
G0 F6000 X130.649 Y107.456
G1 F1200 X129.742 Y106.549 E16.61543
G0 F6000 X130.308 Y106.549
G1 F1200 X130.649 Y106.89 E16.62505
G0 F6000 X131.39 Y106.89
G1 F2700 E11.62505
G0 F6000 X131.018 Y106.182
G0 X120.182 Y106.182
G0 X119.42 Y116
G0 X118.335 Y116
G0 X115.665 Y116
G0 X114.58 Y116
G0 X114 Y116
;TYPE:WALL-INNER
G1 F2700 E16.62505
G1 F1200 X102.8 Y116 E16.84856
G1 X102.8 Y108 E17.00821
G1 X103.784 Y108 E17.02785
G1 X103.803 Y113.002 E17.12767
G1 X112.267 Y113.002 E17.29658
G1 X113.003 Y112.5 E17.31435
G1 X113.003 Y108 E17.40416
G1 X114 Y108 E17.42405
G1 X114 Y116 E17.5837
G0 F6000 X114.4 Y116.4
G1 F1200 X102.4 Y116.4 E17.82317
G1 X102.4 Y107.6 E17.99879
G1 X104.182 Y107.6 E18.03435
G1 X104.201 Y112.602 E18.13417
G1 X112.144 Y112.602 E18.29268
G1 X112.603 Y112.289 E18.30377
G1 X112.603 Y107.6 E18.39734
G1 X114.4 Y107.6 E18.4332
G1 X114.4 Y116.4 E18.60882
G0 F6000 X114.8 Y116.8
;TYPE:WALL-OUTER
G1 F1200 X102 Y116.8 E18.86426
G1 X102 Y107.2 E19.05583
G1 X104.58 Y107.2 E19.10732
G1 X104.599 Y112.202 E19.20714
G1 X112.021 Y112.202 E19.35526
G1 X112.203 Y112.078 E19.35965
G1 X112.203 Y107.2 E19.457
G1 X114.8 Y107.2 E19.50882
G1 X114.8 Y116.8 E19.7004
G0 F6000 X114.53 Y116.53
G0 X113.89 Y115.61
G0 X113.61 Y115.61
;TYPE:SKIN
G1 F1200 X103.19 Y115.61 E19.90834
G1 X103.19 Y108.39 E20.05243
G1 X103.396 Y108.39 E20.05654
G1 X103.415 Y113.392 E20.15636
G1 X112.388 Y113.392 E20.33542
G1 X113.393 Y112.706 E20.35971
G1 X113.393 Y108.39 E20.44584
G1 X113.61 Y108.39 E20.45017
G1 X113.61 Y115.61 E20.59425
G0 F6000 X113.89 Y115.61
G0 X113.818 Y108.182
G0 X113.185 Y108.182
G0 X112.853 Y112.737
G0 X113.099 Y113.099
G1 F1200 X113.449 Y113.449 E20.60413
G0 F6000 X113.449 Y114.015
G1 F1200 X112.763 Y113.329 E20.62349
G0 F6000 X112.42 Y113.551
G1 F1200 X113.449 Y114.58 E20.65253
G0 F6000 X113.449 Y115.146
G1 F1200 X111.854 Y113.551 E20.69754
G0 F6000 X111.288 Y113.551
G1 F1200 X113.185 Y115.448 E20.75108
G0 F6000 X112.62 Y115.448
G1 F1200 X110.723 Y113.551 E20.80462
G0 F6000 X110.157 Y113.551
G1 F1200 X112.054 Y115.448 E20.85816
G0 F6000 X111.488 Y115.448
G1 F1200 X109.591 Y113.551 E20.91169
G0 F6000 X109.025 Y113.551
G1 F1200 X110.923 Y115.448 E20.96524
G0 F6000 X110.357 Y115.448
G1 F1200 X108.46 Y113.551 E21.01878
G0 F6000 X107.894 Y113.551
G1 F1200 X109.791 Y115.448 E21.07232
G0 F6000 X109.226 Y115.448
G1 F1200 X107.328 Y113.551 E21.12587
G0 F6000 X106.763 Y113.551
G1 F1200 X108.66 Y115.448 E21.17941
G0 F6000 X108.094 Y115.448
G1 F1200 X106.197 Y113.551 E21.23295
G0 F6000 X105.631 Y113.551
G1 F1200 X107.529 Y115.448 E21.2865
G0 F6000 X106.963 Y115.448
G1 F1200 X105.066 Y113.551 E21.34004
G0 F6000 X104.5 Y113.551
G1 F1200 X106.397 Y115.448 E21.39357
G0 F6000 X105.831 Y115.448
G1 F1200 X103.934 Y113.551 E21.44711
G0 F6000 X103.369 Y113.551
G1 F1200 X105.266 Y115.448 E21.50065
G0 F6000 X104.7 Y115.448
G1 F1200 X103.35 Y114.098 E21.53875
G0 F6000 X103.35 Y114.663
G1 F1200 X104.134 Y115.448 E21.56089
G0 F6000 X103.569 Y115.448
G1 F1200 X103.35 Y115.229 E21.56707
G0 F6000 X102.61 Y115.229
G1 F2700 E16.56707
G0 F6000 X102.22 Y116
G0 X101.135 Y116
G0 X98.665 Y116
G0 X97.58 Y116
G0 X97 Y116
;TYPE:WALL-INNER
G1 F2700 E21.56707
G1 F1200 X85.8 Y116 E21.79058
G1 X85.8 Y108 E21.95023
G1 X86.784 Y108 E21.96986
G1 X86.803 Y113.002 E22.06968
G1 X95.267 Y113.002 E22.23859
G1 X96.003 Y112.5 E22.25637
G1 X96.003 Y108 E22.34617
G1 X97 Y108 E22.36607
G1 X97 Y116 E22.52572
G0 F6000 X97.4 Y116.4
G1 F1200 X85.4 Y116.4 E22.76519
G1 X85.4 Y107.6 E22.9408
G1 X87.182 Y107.6 E22.97637
G1 X87.201 Y112.602 E23.07619
G1 X95.144 Y112.602 E23.2347
G1 X95.603 Y112.289 E23.24578
G1 X95.603 Y107.6 E23.33936
G1 X97.4 Y107.6 E23.37522
G1 X97.4 Y116.4 E23.55083
G0 F6000 X97.8 Y116.8
;TYPE:WALL-OUTER
G1 F1200 X85 Y116.8 E23.80627
G1 X85 Y107.2 E23.99785
G1 X87.58 Y107.2 E24.04934
G1 X87.599 Y112.202 E24.14916
G1 X95.021 Y112.202 E24.29727
G1 X95.203 Y112.078 E24.30167
G1 X95.203 Y107.2 E24.39901
G1 X97.8 Y107.2 E24.45084
G1 X97.8 Y116.8 E24.64242
G0 F6000 X97.53 Y116.53
G0 X96.89 Y115.61
G0 X96.61 Y115.61
;TYPE:SKIN
G1 F1200 X86.19 Y115.61 E24.85036
G1 X86.19 Y108.39 E24.99444
G1 X86.396 Y108.39 E24.99855
G1 X86.415 Y113.392 E25.09837
G1 X95.388 Y113.392 E25.27744
G1 X96.393 Y112.706 E25.30172
G1 X96.393 Y108.39 E25.38785
G1 X96.61 Y108.39 E25.39218
G1 X96.61 Y115.61 E25.53627
G0 F6000 X96.89 Y115.61
G0 X96.818 Y108.182
G0 X96.185 Y108.182
G0 X95.87 Y112.724
G0 X96.117 Y113.087
G1 F1200 X96.449 Y113.419 E25.54564
G0 F6000 X96.449 Y113.985
G1 F1200 X95.781 Y113.317 E25.56449
G0 F6000 X95.444 Y113.546
G1 F1200 X96.449 Y114.551 E25.59285
G0 F6000 X96.449 Y115.116
G1 F1200 X94.883 Y113.551 E25.63703
G0 F6000 X94.318 Y113.551
G1 F1200 X96.216 Y115.449 E25.6906
G0 F6000 X95.65 Y115.449
G1 F1200 X93.752 Y113.551 E25.74416
G0 F6000 X93.186 Y113.551
G1 F1200 X95.084 Y115.449 E25.79773
G0 F6000 X94.518 Y115.449
G1 F1200 X92.621 Y113.551 E25.85128
G0 F6000 X92.055 Y113.551
G1 F1200 X93.953 Y115.449 E25.90485
G0 F6000 X93.387 Y115.449
G1 F1200 X91.489 Y113.551 E25.95841
G0 F6000 X90.924 Y113.551
G1 F1200 X92.821 Y115.449 E26.01196
G0 F6000 X92.256 Y115.449
G1 F1200 X90.358 Y113.551 E26.06553
G0 F6000 X89.792 Y113.551
G1 F1200 X91.69 Y115.449 E26.1191
G0 F6000 X91.124 Y115.449
G1 F1200 X89.226 Y113.551 E26.17266
G0 F6000 X88.661 Y113.551
G1 F1200 X90.559 Y115.449 E26.22623
G0 F6000 X89.993 Y115.449
G1 F1200 X88.095 Y113.551 E26.27979
G0 F6000 X87.529 Y113.551
G1 F1200 X89.427 Y115.449 E26.33336
G0 F6000 X88.862 Y115.449
G1 F1200 X86.964 Y113.551 E26.38692
G0 F6000 X86.398 Y113.551
G1 F1200 X88.296 Y115.449 E26.44049
G0 F6000 X87.73 Y115.449
G1 F1200 X86.35 Y114.069 E26.47944
G0 F6000 X86.35 Y114.634
G1 F1200 X87.165 Y115.449 E26.50244
G0 F6000 X86.599 Y115.449
G1 F1200 X86.35 Y115.2 E26.50946
G0 F6000 X85.61 Y115.2
G1 F2700 E21.50946
G0 F6000 X85.982 Y115.818
G0 X97.586 Y116.586
G0 X98.665 Y116.586
G0 X101.147 Y117.653
G0 X115.653 Y117.653
G0 X118.347 Y104.347
G0 X132.853 Y104.347
G0 X136.335 Y116.586
G0 X137.42 Y116.586
G0 X138 Y129
;TYPE:WALL-INNER
G1 F2700 E26.50946
G1 F1200 X138 Y106 E26.96845
G1 X149.2 Y106 E27.19196
G1 X149.2 Y129 E27.65095
G1 X138 Y129 E27.87446
G0 F6000 X137.6 Y129.4
G1 F1200 X137.6 Y105.6 E28.34942
G1 X149.6 Y105.6 E28.58889
G1 X149.6 Y129.4 E29.06384
G1 X137.6 Y129.4 E29.30332
G0 F6000 X137.2 Y129.8
;TYPE:WALL-OUTER
G1 F1200 X137.2 Y105.2 E29.79424
G1 X150 Y105.2 E30.04967
G1 X150 Y129.8 E30.54059
G1 X137.2 Y129.8 E30.79603
G0 F6000 X137.47 Y129.53
G0 X138.11 Y128.61
G0 X138.39 Y128.61
;TYPE:SKIN
G1 F1200 X138.39 Y106.39 E31.23945
G1 X148.81 Y106.39 E31.4474
G1 X148.81 Y128.61 E31.89082
G1 X138.39 Y128.61 E32.09876
G0 F6000 X138.632 Y128.45
G1 F1200 X138.549 Y128.366 E32.10112
G0 F6000 X138.549 Y127.801
G1 F1200 X139.198 Y128.45 E32.11944
G0 F6000 X139.763 Y128.45
G1 F1200 X138.549 Y127.235 E32.15371
G0 F6000 X138.549 Y126.669
G1 F1200 X140.329 Y128.45 E32.20396
G0 F6000 X140.895 Y128.45
G1 F1200 X138.549 Y126.104 E32.27017
G0 F6000 X138.549 Y125.538
G1 F1200 X141.46 Y128.45 E32.35234
G0 F6000 X142.026 Y128.45
G1 F1200 X138.549 Y124.972 E32.45048
G0 F6000 X138.549 Y124.406
G1 F1200 X142.592 Y128.45 E32.5646
G0 F6000 X143.158 Y128.45
G1 F1200 X138.549 Y123.841 E32.69467
G0 F6000 X138.549 Y123.275
G1 F1200 X143.723 Y128.45 E32.84071
G0 F6000 X144.289 Y128.45
G1 F1200 X138.549 Y122.709 E33.00272
G0 F6000 X138.549 Y122.144
G1 F1200 X144.855 Y128.45 E33.18069
G0 F6000 X145.42 Y128.45
G1 F1200 X138.549 Y121.578 E33.37462
G0 F6000 X138.549 Y121.012
G1 F1200 X145.986 Y128.45 E33.58452
G0 F6000 X146.552 Y128.45
G1 F1200 X138.549 Y120.447 E33.81038
G0 F6000 X138.549 Y119.881
G1 F1200 X147.117 Y128.45 E34.0522
G0 F6000 X147.683 Y128.45
G1 F1200 X138.549 Y119.315 E34.31
G0 F6000 X138.549 Y118.75
G1 F1200 X148.249 Y128.45 E34.58375
G0 F6000 X148.649 Y128.284
G1 F1200 X138.549 Y118.184 E34.8688
G0 F6000 X138.549 Y117.618
G1 F1200 X148.649 Y127.719 E35.15386
G0 F6000 X148.649 Y127.153
G1 F1200 X138.549 Y117.053 E35.4389
G0 F6000 X138.549 Y116.487
G1 F1200 X148.649 Y126.587 E35.72394
G0 F6000 X148.649 Y126.021
G1 F1200 X138.549 Y115.921 E36.00899
G0 F6000 X138.549 Y115.355
G1 F1200 X148.649 Y125.456 E36.29404
G0 F6000 X148.649 Y124.89
G1 F1200 X138.549 Y114.79 E36.57909
G0 F6000 X138.549 Y114.224
G1 F1200 X148.649 Y124.324 E36.86413
G0 F6000 X148.649 Y123.759
G1 F1200 X138.549 Y113.658 E37.14919
G0 F6000 X138.549 Y113.093
G1 F1200 X148.649 Y123.193 E37.43423
G0 F6000 X148.649 Y122.627
G1 F1200 X138.549 Y112.527 E37.71928
G0 F6000 X138.549 Y111.961
G1 F1200 X148.649 Y122.062 E38.00434
G0 F6000 X148.649 Y121.496
G1 F1200 X138.549 Y111.396 E38.28938
G0 F6000 X138.549 Y110.83
G1 F1200 X148.649 Y120.93 E38.57442
G0 F6000 X148.649 Y120.365
G1 F1200 X138.549 Y110.264 E38.85948
G0 F6000 X138.549 Y109.699
G1 F1200 X148.649 Y119.799 E39.14452
G0 F6000 X148.649 Y119.233
G1 F1200 X138.549 Y109.133 E39.42957
G0 F6000 X138.549 Y108.567
G1 F1200 X148.649 Y118.668 E39.71463
G0 F6000 X148.649 Y118.102
G1 F1200 X138.549 Y108.002 E39.99967
G0 F6000 X138.549 Y107.436
G1 F1200 X148.649 Y117.536 E40.28471
G0 F6000 X148.649 Y116.971
G1 F1200 X138.549 Y106.87 E40.56977
G0 F6000 X138.793 Y106.549
G1 F1200 X148.649 Y116.405 E40.84793
G0 F6000 X148.649 Y115.839
G1 F1200 X139.359 Y106.549 E41.11011
G0 F6000 X139.925 Y106.549
G1 F1200 X148.649 Y115.273 E41.35632
G0 F6000 X148.649 Y114.708
G1 F1200 X140.49 Y106.549 E41.58659
G0 F6000 X141.056 Y106.549
G1 F1200 X148.649 Y114.142 E41.80088
G0 F6000 X148.649 Y113.576
G1 F1200 X141.622 Y106.549 E41.9992
G0 F6000 X142.187 Y106.549
G1 F1200 X148.649 Y113.011 E42.18157
G0 F6000 X148.649 Y112.445
G1 F1200 X142.753 Y106.549 E42.34797
G0 F6000 X143.319 Y106.549
G1 F1200 X148.649 Y111.879 E42.49839
G0 F6000 X148.649 Y111.314
G1 F1200 X143.884 Y106.549 E42.63287
G0 F6000 X144.45 Y106.549
G1 F1200 X148.649 Y110.748 E42.75137
G0 F6000 X148.649 Y110.182
G1 F1200 X145.016 Y106.549 E42.8539
G0 F6000 X145.581 Y106.549
G1 F1200 X148.649 Y109.617 E42.94049
G0 F6000 X148.649 Y109.051
G1 F1200 X146.147 Y106.549 E43.0111
G0 F6000 X146.713 Y106.549
G1 F1200 X148.649 Y108.485 E43.06574
G0 F6000 X148.649 Y107.92
G1 F1200 X147.279 Y106.549 E43.10442
G0 F6000 X147.844 Y106.549
G1 F1200 X148.649 Y107.354 E43.12714
G0 F6000 X148.649 Y106.788
G1 F1200 X148.41 Y106.549 E43.13388
G0 F6000 X148.41 Y105.81
G1 F2700 E38.13388
;MESH:NONMESH
G0 F300 X148.41 Y105.81 Z0.27
G0 F6000 X138.182 Y106.182
G0 X137.42 Y129
G0 X136.335 Y129
G0 X132.865 Y129
G0 X131.78 Y129
G0 X120 Y129
;TIME_ELAPSED:132.217769
;LAYER:1
M140 S60
M106 S85
