;FLAVOR:Marlin
;TIME:6421
;Filament used: 4.80573m
;Layer height: 0.15
;MINX:78.018
;MINY:78.586
;MINZ:0.144
;MAXX:157.678
;MAXY:156.414
;MAXZ:49.239
;Generated with Cura_SteamEngine 4.9.1
M140 S110
M105
M190 S110
M104 S240
M105
M109 S240
M82 ;absolute extrusion mode
M201 X500.00 Y500.00 Z100.00 E5000.00 ;Setup machine max acceleration
M203 X500.00 Y500.00 Z10.00 E50.00 ;Setup machine max feedrate
M204 P500.00 R1000.00 T500.00 ;Setup Print/Retract/Travel acceleration
M205 X8.00 Y8.00 Z0.40 E5.00 ;Setup Jerk
M220 S100 ;Reset Feedrate
M221 S100 ;Reset Flowrate

G28 ;Home

G92 E0 ;Reset Extruder
G1 Z2.0 F3000 ;Move Z Axis up
G1 X10.1 Y20 Z0.28 F5000.0 ;Move to start position
G1 X10.1 Y200.0 Z0.28 F1500.0 E15 ;Draw the first line
G1 X10.4 Y200.0 Z0.28 F5000.0 ;Move to side a little
G1 X10.4 Y20 Z0.28 F1500.0 E30 ;Draw the second line
G92 E0 ;Reset Extruder
G1 Z2.0 F3000 ;Move Z Axis up

G92 E0
G92 E0
G1 F2700 E-5
;LAYER_COUNT:323
;LAYER:-6
M107
G0 F12000 X83.409 Y83.982 Z0.144
;TYPE:SUPPORT-INTERFACE
G1 F2700 E0
G1 F1800 X84.117 Y83.325 E0.05783
G1 X84.229 Y83.229 E0.06666
G1 X84.916 Y82.678 E0.11938
G1 X85.063 Y82.568 E0.13037
G1 X85.79 Y82.067 E0.18323
G1 X85.958 Y81.96 E0.19516
G1 X86.708 Y81.521 E0.24718
G1 X86.85 Y81.444 E0.25685
G1 X87.663 Y81.045 E0.31107
G1 X87.802 Y80.983 E0.32018
G1 X88.638 Y80.646 E0.37415
G1 X88.805 Y80.586 E0.38477
G1 X89.644 Y80.317 E0.43752
G1 X89.791 Y80.275 E0.44667
G1 X90.661 Y80.064 E0.50027
G1 X90.835 Y80.028 E0.5109
G1 X91.704 Y79.884 E0.56364
G1 X91.881 Y79.861 E0.57433
G1 X92.785 Y79.778 E0.62867
G1 X92.916 Y79.771 E0.63653
G1 X93.657 Y79.75 E0.68091
G1 X126.353 Y79.751 E2.63836
G1 X127.347 Y79.787 E2.69791
G1 X127.488 Y79.797 E2.70637
G1 X128.378 Y79.896 E2.75998
G1 X128.542 Y79.92 E2.76991
G1 X129.447 Y80.087 E2.825
G1 X129.565 Y80.113 E2.83223
G1 X130.448 Y80.344 E2.88688
G1 X130.627 Y80.398 E2.89807
G1 X131.434 Y80.673 E2.94911
G1 X131.627 Y80.747 E2.96149
G1 X132.416 Y81.081 E3.01278
G1 X132.582 Y81.159 E3.02376
G1 X133.39 Y81.575 E3.07817
G1 X133.516 Y81.646 E3.08683
G1 X134.28 Y82.111 E3.14037
G1 X134.425 Y82.208 E3.15082
G1 X135.148 Y82.725 E3.20403
G1 X135.284 Y82.829 E3.21428
G1 X135.971 Y83.402 E3.26784
G1 X136.088 Y83.506 E3.27721
G1 X136.63 Y84.019 E3.32189
G1 X136.762 Y84.152 E3.33311
G1 X137.425 Y84.867 E3.39148
G1 X137.521 Y84.979 E3.40032
G1 X138.072 Y85.666 E3.45304
G1 X138.182 Y85.813 E3.46403
G1 X138.683 Y86.54 E3.51689
G1 X138.79 Y86.708 E3.52881
G1 X139.226 Y87.452 E3.58044
G1 X139.297 Y87.583 E3.58936
G1 X139.7 Y88.402 E3.64401
G1 X139.767 Y88.552 E3.65384
G1 X140.108 Y89.396 E3.70834
G1 X140.159 Y89.539 E3.71743
G1 X140.425 Y90.364 E3.76932
G1 X140.475 Y90.541 E3.78034
G1 X140.685 Y91.406 E3.83363
G1 X140.722 Y91.585 E3.84457
G1 X140.866 Y92.454 E3.8973
G1 X140.888 Y92.621 E3.90739
G1 X140.97 Y93.517 E3.96125
G1 X140.979 Y93.666 E3.97019
G1 X141 Y94.396 E4.01391
G1 X141 Y96.663 E4.14963
G1 X141.043 Y97.341 E4.19031
G1 X141.174 Y98.025 E4.232
G1 X141.391 Y98.685 E4.2736
G1 X141.689 Y99.314 E4.31526
G1 X142.063 Y99.899 E4.35683
G1 X142.51 Y100.433 E4.39853
G1 X143.019 Y100.906 E4.44012
G1 X143.588 Y101.314 E4.48204
G1 X144.335 Y101.703 E4.53246
G1 X144.723 Y101.867 E4.55768
G1 X144.89 Y101.945 E4.56872
G1 X145.698 Y102.361 E4.62313
G1 X145.824 Y102.432 E4.63178
G1 X146.598 Y102.903 E4.68603
G1 X146.712 Y102.977 E4.69416
G1 X147.239 Y103.344 E4.73261
G1 X149.643 Y105.096 E4.9107
G1 X150.4 Y105.691 E4.96834
G1 X150.517 Y105.789 E4.97748
G1 X151.178 Y106.392 E5.03105
G1 X151.279 Y106.49 E5.03947
G1 X151.928 Y107.174 E5.09592
G1 X152.003 Y107.26 E5.10275
G1 X152.584 Y107.968 E5.15759
G1 X152.681 Y108.095 E5.16715
G1 X153.196 Y108.827 E5.22074
G1 X153.297 Y108.984 E5.23191
G1 X153.739 Y109.721 E5.28336
G1 X153.825 Y109.876 E5.29397
G1 X154.232 Y110.685 E5.34819
G1 X154.303 Y110.838 E5.35829
G1 X154.653 Y111.681 E5.41293
G1 X154.694 Y111.788 E5.41979
G1 X154.88 Y112.319 E5.45348
G1 X155.81 Y115.182 E5.6337
G1 X156.075 Y116.109 E5.69142
G1 X156.111 Y116.255 E5.70042
G1 X156.293 Y117.131 E5.75399
G1 X156.322 Y117.294 E5.7639
G1 X156.444 Y118.215 E5.81952
G1 X156.457 Y118.359 E5.82817
G1 X156.509 Y119.248 E5.88149
G1 X156.513 Y119.4 E5.89059
G1 X156.5 Y120.337 E5.94669
G1 X156.495 Y120.438 E5.95275
G1 X156.415 Y121.35 E6.00756
G1 X156.393 Y121.527 E6.01823
G1 X156.252 Y122.408 E6.07165
G1 X156.222 Y122.559 E6.08087
G1 X156.006 Y123.464 E6.13657
G1 X155.976 Y123.576 E6.14351
G1 X155.795 Y124.176 E6.18103
G1 X154.869 Y127.019 E6.36004
G1 X154.536 Y127.926 E6.41788
G1 X154.487 Y128.046 E6.42564
G1 X154.11 Y128.879 E6.48038
G1 X154.048 Y129.005 E6.48879
G1 X153.601 Y129.831 E6.54502
G1 X153.54 Y129.933 E6.55213
G1 X153.055 Y130.69 E6.60596
G1 X152.953 Y130.838 E6.61672
G1 X152.414 Y131.558 E6.67056
G1 X152.318 Y131.676 E6.67967
G1 X151.732 Y132.349 E6.73309
G1 X151.612 Y132.478 E6.74364
G1 X150.976 Y133.109 E6.79728
G1 X150.873 Y133.204 E6.80567
G1 X150.146 Y133.827 E6.86299
G1 X150.083 Y133.879 E6.86788
G1 X149.59 Y134.252 E6.90489
G1 X147.248 Y135.956 E7.07828
G1 X147.138 Y136.033 E7.08632
G1 X146.397 Y136.532 E7.13981
G1 X146.254 Y136.621 E7.14989
G1 X145.469 Y137.071 E7.20406
G1 X145.318 Y137.15 E7.21426
G1 X144.525 Y137.53 E7.26691
G1 X143.795 Y137.846 E7.31453
G1 X143.726 Y137.899 E7.31974
G1 X143.138 Y138.272 E7.36143
G1 X142.603 Y138.717 E7.40309
G1 X142.129 Y139.225 E7.44469
G1 X141.722 Y139.789 E7.48633
G1 X141.39 Y140.4 E7.52796
G1 X141.137 Y141.048 E7.5696
G1 X140.97 Y141.716 E7.61083
G1 X140.912 Y142.106 E7.63443
G1 X140.857 Y142.61 E7.66478
G1 X140.831 Y142.789 E7.67561
G1 X140.663 Y143.697 E7.7309
G1 X140.638 Y143.81 E7.73782
G1 X140.408 Y144.691 E7.79234
G1 X140.352 Y144.877 E7.80397
G1 X140.077 Y145.684 E7.85501
G1 X140.003 Y145.877 E7.86738
G1 X139.671 Y146.661 E7.91835
G1 X139.591 Y146.832 E7.92966
G1 X139.18 Y147.631 E7.98345
G1 X139.106 Y147.763 E7.99251
G1 X138.642 Y148.525 E8.04592
G1 X138.542 Y148.675 E8.05671
G1 X138.025 Y149.399 E8.10997
G1 X137.934 Y149.518 E8.11894
G1 X137.348 Y150.221 E8.17373
G1 X137.244 Y150.338 E8.18311
G1 X136.732 Y150.878 E8.22766
G1 X136.598 Y151.012 E8.239
G1 X135.895 Y151.664 E8.2964
G1 X135.771 Y151.771 E8.30621
G1 X135.084 Y152.322 E8.35893
G1 X134.937 Y152.432 E8.36993
G1 X134.21 Y152.933 E8.42278
G1 X134.046 Y153.037 E8.43441
G1 X133.292 Y153.479 E8.48673
G1 X133.153 Y153.554 E8.49619
G1 X132.337 Y153.955 E8.55062
G1 X132.201 Y154.016 E8.55955
G1 X131.359 Y154.356 E8.61391
G1 X131.201 Y154.412 E8.62395
G1 X130.356 Y154.683 E8.67707
G1 X130.209 Y154.725 E8.68623
G1 X129.339 Y154.936 E8.73982
G1 X129.165 Y154.972 E8.75046
G1 X128.296 Y155.116 E8.80319
G1 X128.119 Y155.139 E8.81388
G1 X127.215 Y155.222 E8.86823
G1 X127.084 Y155.229 E8.87608
G1 X126.343 Y155.25 E8.92046
G1 X93.647 Y155.249 E10.87791
G1 X92.653 Y155.213 E10.93746
G1 X92.512 Y155.203 E10.94592
G1 X91.622 Y155.104 E10.99954
G1 X91.458 Y155.08 E11.00946
G1 X90.553 Y154.913 E11.06455
G1 X90.435 Y154.887 E11.07179
G1 X89.552 Y154.656 E11.12643
G1 X89.373 Y154.602 E11.13762
G1 X88.566 Y154.327 E11.18867
G1 X88.373 Y154.253 E11.20104
G1 X87.584 Y153.919 E11.25234
G1 X87.418 Y153.841 E11.26332
G1 X86.61 Y153.425 E11.31772
G1 X86.484 Y153.354 E11.32638
G1 X85.72 Y152.889 E11.37993
G1 X85.575 Y152.792 E11.39037
G1 X84.845 Y152.27 E11.4441
G1 X84.716 Y152.171 E11.45383
G1 X84.029 Y151.598 E11.50739
G1 X83.912 Y151.494 E11.51676
G1 X83.372 Y150.982 E11.56131
G1 X83.232 Y150.841 E11.57321
G1 X82.575 Y150.133 E11.63104
G1 X82.469 Y150.009 E11.6408
G1 X81.912 Y149.314 E11.69412
G1 X81.818 Y149.187 E11.70358
G1 X81.317 Y148.46 E11.75644
G1 X81.21 Y148.292 E11.76837
G1 X80.771 Y147.542 E11.82039
G1 X80.694 Y147.4 E11.83006
G1 X80.295 Y146.587 E11.88428
G1 X80.233 Y146.448 E11.8934
G1 X79.891 Y145.601 E11.94808
G1 X79.836 Y145.446 E11.95793
G1 X79.565 Y144.601 E12.01105
G1 X79.524 Y144.457 E12.02002
G1 X79.309 Y143.571 E12.0746
G1 X79.278 Y143.417 E12.08401
G1 X79.134 Y142.546 E12.13686
G1 X79.11 Y142.36 E12.14809
G1 X79.028 Y141.465 E12.20189
G1 X79.021 Y141.334 E12.20975
G1 X79 Y140.604 E12.25347
G1 X79 Y94.414 E15.01878
G1 X79.036 Y93.412 E15.07881
G1 X79.047 Y93.262 E15.08781
G1 X79.146 Y92.368 E15.14166
G1 X79.169 Y92.211 E15.15116
G1 X79.337 Y91.303 E15.20645
G1 X79.362 Y91.19 E15.21337
G1 X79.597 Y90.289 E15.26912
G1 X79.642 Y90.14 E15.27844
G1 X79.923 Y89.316 E15.33056
G1 X79.997 Y89.123 E15.34293
G1 X80.329 Y88.339 E15.39391
G1 X80.409 Y88.168 E15.40521
G1 X80.825 Y87.36 E15.45962
G1 X80.896 Y87.234 E15.46828
G1 X81.361 Y86.47 E15.52182
G1 X81.458 Y86.325 E15.53226
G1 X81.981 Y85.594 E15.58608
G1 X82.079 Y85.466 E15.59573
G1 X82.652 Y84.779 E15.64929
G1 X82.756 Y84.662 E15.65866
G1 X83.268 Y84.122 E15.70321
G1 X83.409 Y83.982 E15.7151
G0 F12000 X84 Y83.433
G1 F1800 X84 Y151.572 E19.79447
G0 F12000 X86 Y153.059
G1 F1800 X86 Y81.935 E24.05253
G0 F12000 X88 Y80.903
G1 F1800 X88 Y154.095 E28.43441
G0 F12000 X90 Y154.773
G1 F1800 X90 Y80.224 E32.89753
G0 F12000 X92 Y79.85
G1 F1800 X92 Y155.146 E37.40537
G0 F12000 X94 Y155.249
G1 F1800 X94 Y79.751 E41.9253
G0 F12000 X96 Y79.751
G1 F1800 X96 Y155.249 E46.44523
G0 F12000 X98 Y155.249
G1 F1800 X98 Y79.751 E50.96517
G0 F12000 X100 Y79.751
G1 F1800 X100 Y155.249 E55.4851
G0 F12000 X102 Y155.249
G1 F1800 X102 Y79.751 E60.00503
G0 F12000 X104 Y79.751
G1 F1800 X104 Y155.249 E64.52496
G0 F12000 X106 Y155.249
G1 F1800 X106 Y79.751 E69.0449
G0 F12000 X108 Y79.751
G1 F1800 X108 Y155.249 E73.56483
G0 F12000 X110 Y155.249
G1 F1800 X110 Y79.751 E78.08476
G0 F12000 X112 Y79.751
G1 F1800 X112 Y155.249 E82.60469
G0 F12000 X114 Y155.249
G1 F1800 X114 Y79.751 E87.12463
G0 F12000 X116 Y79.751
G1 F1800 X116 Y155.249 E91.64456
G0 F12000 X118 Y155.249
G1 F1800 X118 Y79.751 E96.16449
G0 F12000 X120 Y79.751
G1 F1800 X120 Y155.249 E100.68442
G0 F12000 X122 Y155.249
G1 F1800 X122 Y79.751 E105.20436
G0 F12000 X124 Y79.751
G1 F1800 X124 Y155.249 E109.72429
G0 F12000 X126 Y155.249
G1 F1800 X126 Y79.751 E114.24422
G0 F12000 X128 Y79.854
G1 F1800 X128 Y155.15 E118.75206
G0 F12000 X130 Y154.776
G1 F1800 X130 Y80.227 E123.21518
G0 F12000 X132 Y80.905
G1 F1800 X132 Y154.098 E127.59712
G0 F12000 X134 Y153.064
G1 F1800 X134 Y81.941 E131.85512
G0 F12000 X136 Y83.428
G1 F1800 X136 Y151.567 E135.93449
G0 F12000 X138 Y149.432
G1 F1800 X138 Y85.577 E139.75737
G0 F12000 X140 Y89.129
G1 F1800 X140 Y145.885 E143.15526
G1 F2700 E138.15526
G0 F12000 X141.169 Y146.089
G0 X141.508 Y144.958
G0 X142.709 Y140.412
G0 X142 Y139.404
G1 F2700 E143.15526
G1 F1800 X142 Y99.801 E145.52622
G0 F12000 X144 Y101.529
G1 F1800 X144 Y137.758 E147.69518
G0 F12000 X146 Y136.767
G1 F1800 X146 Y102.54 E149.74429
G0 F12000 X148 Y103.899
G1 F1800 X148 Y135.409 E151.63074
G0 F12000 X150 Y133.942
G1 F1800 X150 Y105.377 E153.34088
G0 F12000 X152 Y107.257
G1 F1800 X152 Y132.042 E154.82471
G0 F12000 X154 Y129.094
G1 F1800 X154 Y110.224 E155.95443
G1 F2700 E150.95443
G0 F12000 X155.278 Y110.171
G0 X155.849 Y111.612
G0 X156.928 Y114.857
G0 X156 Y115.847
G1 F2700 E155.95443
G1 F1800 X156 Y123.487 E156.41182
G1 F2700 E151.41182
G0 F12000 X157.094 Y123.9
G0 X155.626 Y128.338
G0 X155.078 Y129.548
G0 X154.021 Y131.342
G0 X153.214 Y132.42
G0 X138.108 Y151.119
G0 X136.508 Y152.672
G0 X134.861 Y153.899
G0 X133.693 Y154.586
G0 X131.777 Y155.443
G0 X130.496 Y155.854
G0 X128.456 Y156.269
G0 X126.366 Y156.414
G0 X92.589 Y156.376
G0 X91.263 Y156.229
G0 X89.236 Y155.777
G0 X87.946 Y155.337
G0 X86.066 Y154.455
G0 X84.907 Y153.746
G0 X83.263 Y152.476
G0 X82.008 Y151.213
G0 X81.092 Y150.153
G0 X82 Y149.423
G1 F2700 E156.41182
G1 F1800 X82 Y85.569 E160.23465
G0 F12000 X80 Y89.115
G1 F1800 X80 Y145.87 E163.63247
G0 F300 X80 Y145.87 Z0.369
G0 F12000 X80.212 Y146.397
;TIME_ELAPSED:104.299834
;LAYER:-5
;TYPE:SUPPORT
G1 F1800 X87.841 Y154.026 E164.64172
G1 X87.584 Y153.918 E164.6678
G1 X87.417 Y153.84 E164.68504
G1 X86.609 Y153.424 E164.77005
G1 X86.484 Y153.353 E164.7835
G1 X85.72 Y152.888 E164.86716
G1 X85.574 Y152.79 E164.88361
G1 X84.845 Y152.269 E164.96743
G1 X84.716 Y152.17 E164.98264
G1 X84.029 Y151.597 E165.06633
G1 X83.912 Y151.493 E165.08097
G1 X83.372 Y150.981 E165.15058
G1 X83.232 Y150.84 E165.16917
G1 X82.575 Y150.132 E165.25952
G1 X82.469 Y150.007 E165.27485
G1 X81.911 Y149.313 E165.35815
G1 X81.817 Y149.186 E165.37293
G1 X81.316 Y148.459 E165.45552
G1 X81.209 Y148.291 E165.47416
G1 X80.77 Y147.541 E165.55545
G1 X80.693 Y147.399 E165.57056
G1 X80.294 Y146.586 E165.65528
G1 X80.232 Y146.447 E165.66951
G1 F2700 E160.66951
G0 F12000 X79.236 Y147.072
G0 X80.22 Y148.906
G0 X80.996 Y150.033
G0 X82.433 Y151.69
G0 X83.997 Y153.087
G0 X85.103 Y153.876
G0 X86.119 Y154.445
G0 X87.108 Y154.981
G0 X87.841 Y154.026
G1 F2700 E165.66951
G1 F1800 X88.372 Y154.252 E165.7235
G1 X88.565 Y154.326 E165.74283
G1 X89.373 Y154.601 E165.82267
G1 X89.552 Y154.655 E165.84016
G1 X90.384 Y154.872 E165.9206
G1 X79.38 Y143.868 E167.37633
G1 X79.308 Y143.57 E167.40501
G1 X79.277 Y143.416 E167.4197
G1 X79.133 Y142.545 E167.50229
G1 X79.109 Y142.358 E167.51992
G1 X79.063 Y141.854 E167.56727
G1 X92.398 Y155.189 E169.33137
G1 X92.511 Y155.202 E169.34201
G1 X92.652 Y155.212 E169.35523
G1 X93.647 Y155.248 E169.44837
G1 X94.154 Y155.248 E169.4958
G1 X79 Y140.094 E171.50054
G1 X79 Y138.397 E171.65929
G1 X95.851 Y155.248 E173.88853
G1 X97.548 Y155.248 E174.04727
G1 X79 Y136.7 E176.50101
G1 X79 Y135.002 E176.65985
G1 X99.245 Y155.248 E179.33816
G1 X100.943 Y155.248 E179.49699
G1 X79 Y133.305 E182.39986
G1 X79 Y131.608 E182.55861
G1 X102.64 Y155.248 E185.68598
G1 X104.337 Y155.248 E185.84472
G1 X79 Y129.911 E189.19659
G1 X79 Y128.214 E189.35533
G1 X106.034 Y155.248 E192.9317
G1 X107.731 Y155.248 E193.09044
G1 X79 Y126.517 E196.8913
G1 X79 Y124.82 E197.05005
G1 X109.428 Y155.248 E201.07541
G1 X111.125 Y155.248 E201.23415
G1 X79 Y123.123 E205.48402
G1 X79 Y121.426 E205.64276
G1 X112.822 Y155.248 E210.11712
G1 X114.519 Y155.248 E210.27586
G1 X79 Y119.729 E214.97472
G1 X79 Y118.032 E215.13346
G1 X116.216 Y155.248 E220.05682
G1 X117.913 Y155.248 E220.21557
G1 X79 Y116.335 E225.36342
G1 X79 Y114.638 E225.52216
G1 X119.61 Y155.248 E230.89452
G1 X121.307 Y155.248 E231.05326
G1 X79 Y112.941 E236.65011
G1 X79 Y111.244 E236.80886
G1 X123.004 Y155.248 E242.63021
G1 X124.701 Y155.248 E242.78895
G1 X79 Y109.547 E248.8348
G1 X79 Y107.85 E248.99354
G1 X126.397 Y155.247 E255.26376
G1 X127.084 Y155.228 E255.32805
G1 X127.215 Y155.221 E255.34032
G1 X127.996 Y155.149 E255.41369
G1 X79 Y106.152 E261.8955
G1 X79 Y104.455 E262.05425
G1 X129.451 Y154.907 E268.72854
G1 X130.208 Y154.724 E268.8014
G1 X130.356 Y154.682 E268.81579
G1 X130.785 Y154.543 E268.85797
G1 X79 Y102.758 E275.70868
G1 X79 Y101.061 E275.86743
G1 X132.023 Y154.085 E282.88198
G1 X132.2 Y154.014 E282.89982
G1 X132.337 Y153.954 E282.91381
G1 X133.153 Y153.553 E282.99886
G1 X133.175 Y153.54 E283.00125
G1 X79 Y99.364 E290.1682
G1 X79 Y97.667 E290.32695
G1 X134.242 Y152.909 E297.63499
G1 X134.937 Y152.431 E297.71389
G1 X135.083 Y152.321 E297.73099
G1 X135.231 Y152.201 E297.74881
G1 X79 Y95.97 E305.18769
G1 X79 Y94.413 E305.33334
G1 X79.004 Y94.277 E305.34607
G1 X136.151 Y151.424 E312.90612
G1 X136.597 Y151.011 E312.96298
G1 X136.731 Y150.876 E312.98078
G1 X137.009 Y150.585 E313.01842
G1 X79.109 Y92.686 E320.67803
G1 X79.145 Y92.367 E320.70806
G1 X79.168 Y92.21 E320.7229
G1 X79.336 Y91.302 E320.80928
G1 X79.352 Y91.231 E320.81609
G1 X137.799 Y149.678 E328.54812
G1 X137.933 Y149.517 E328.56772
G1 X138.025 Y149.398 E328.58179
G1 X138.521 Y148.703 E328.66166
G1 X79.722 Y89.904 E336.44026
G1 X79.923 Y89.315 E336.49848
G1 X79.996 Y89.122 E336.51778
