;FLAVOR:Marlin
;TIME:2053
;Filament used: 1.66474m
;Layer height: 0.12
;MINX:84.336
;MINY:91.836
;MINZ:0.144
;MAXX:150.665
;MAXY:143.164
;MAXZ:16.194
;Generated with Cura_SteamEngine 4.9.1
M140 S110
M105
M190 S110
M104 S240
M105
M109 S240
M82 ;absolute extrusion mode
M201 X500.00 Y500.00 Z100.00 E5000.00 ;Setup machine max acceleration
M203 X500.00 Y500.00 Z10.00 E50.00 ;Setup machine max feedrate
M204 P500.00 R1000.00 T500.00 ;Setup Print/Retract/Travel acceleration
M205 X8.00 Y8.00 Z0.40 E5.00 ;Setup Jerk
M220 S100 ;Reset Feedrate
M221 S100 ;Reset Flowrate

G28 ;Home

G92 E0 ;Reset Extruder
G1 Z2.0 F3000 ;Move Z Axis up
G1 X10.1 Y20 Z0.28 F5000.0 ;Move to start position
G1 X10.1 Y200.0 Z0.28 F1500.0 E15 ;Draw the first line
G1 X10.4 Y200.0 Z0.28 F5000.0 ;Move to side a little
G1 X10.4 Y20 Z0.28 F1500.0 E30 ;Draw the second line
G92 E0 ;Reset Extruder
G1 Z2.0 F3000 ;Move Z Axis up

G92 E0
G92 E0
G1 F2700 E-5
;LAYER_COUNT:129
;LAYER:-6
M107
G0 F15000 X89.909 Y97.232 Z0.144
;TYPE:SUPPORT-INTERFACE
G1 F2700 E0
G1 F3375 X90.617 Y96.575 E0.05783
G1 X90.729 Y96.479 E0.06666
G1 X91.416 Y95.928 E0.11938
G1 X91.563 Y95.818 E0.13037
G1 X92.29 Y95.317 E0.18323
G1 X92.458 Y95.21 E0.19516
G1 X93.208 Y94.771 E0.24718
G1 X93.35 Y94.694 E0.25685
G1 X94.163 Y94.295 E0.31107
G1 X94.302 Y94.233 E0.32018
G1 X95.138 Y93.896 E0.37415
G1 X95.305 Y93.836 E0.38477
G1 X96.144 Y93.567 E0.43752
G1 X96.291 Y93.525 E0.44667
G1 X97.161 Y93.314 E0.50027
G1 X97.335 Y93.278 E0.5109
G1 X98.204 Y93.134 E0.56364
G1 X98.381 Y93.111 E0.57433
G1 X99.285 Y93.028 E0.62867
G1 X99.416 Y93.021 E0.63653
G1 X100.157 Y93 E0.68091
G1 X134.853 Y93.001 E2.7581
G1 X135.847 Y93.037 E2.81764
G1 X135.988 Y93.047 E2.82611
G1 X136.878 Y93.146 E2.87972
G1 X137.042 Y93.17 E2.88964
G1 X137.947 Y93.337 E2.94474
G1 X138.065 Y93.363 E2.95197
G1 X138.948 Y93.594 E3.00661
G1 X139.127 Y93.648 E3.01781
G1 X139.934 Y93.923 E3.06885
G1 X140.127 Y93.997 E3.08122
G1 X140.916 Y94.331 E3.13252
G1 X141.082 Y94.409 E3.1435
G1 X141.89 Y94.825 E3.19791
G1 X142.016 Y94.896 E3.20657
G1 X142.78 Y95.361 E3.26011
G1 X142.925 Y95.458 E3.27055
G1 X143.648 Y95.975 E3.32377
G1 X143.784 Y96.079 E3.33402
G1 X144.471 Y96.652 E3.38758
G1 X144.588 Y96.756 E3.39695
G1 X145.128 Y97.268 E3.4415
G1 X145.262 Y97.402 E3.45284
G1 X145.925 Y98.117 E3.51122
G1 X146.021 Y98.229 E3.52005
G1 X146.572 Y98.916 E3.57277
G1 X146.682 Y99.063 E3.58377
G1 X147.183 Y99.79 E3.63662
G1 X147.29 Y99.958 E3.64855
G1 X147.726 Y100.702 E3.70018
G1 X147.797 Y100.833 E3.7091
G1 X148.2 Y101.652 E3.76374
G1 X148.267 Y101.802 E3.77358
G1 X148.608 Y102.646 E3.82808
G1 X148.659 Y102.789 E3.83716
G1 X148.925 Y103.614 E3.88906
G1 X148.975 Y103.791 E3.90007
G1 X149.185 Y104.656 E3.95336
G1 X149.222 Y104.835 E3.9643
G1 X149.366 Y105.704 E4.01704
G1 X149.388 Y105.871 E4.02712
G1 X149.47 Y106.767 E4.08099
G1 X149.479 Y106.916 E4.08993
G1 X149.5 Y107.646 E4.13365
G1 X149.5 Y127.336 E5.31245
G1 X149.464 Y128.338 E5.37248
G1 X149.453 Y128.488 E5.38149
G1 X149.355 Y129.371 E5.43467
G1 X149.331 Y129.539 E5.44483
G1 X149.163 Y130.447 E5.50012
G1 X149.138 Y130.56 E5.50705
G1 X148.908 Y131.441 E5.56156
G1 X148.852 Y131.627 E5.57319
G1 X148.577 Y132.434 E5.62423
G1 X148.503 Y132.627 E5.6366
G1 X148.171 Y133.411 E5.68757
G1 X148.091 Y133.582 E5.69888
G1 X147.68 Y134.381 E5.75267
G1 X147.606 Y134.513 E5.76173
G1 X147.142 Y135.275 E5.81514
G1 X147.042 Y135.425 E5.82593
G1 X146.525 Y136.149 E5.8792
G1 X146.434 Y136.268 E5.88816
G1 X145.848 Y136.971 E5.94296
G1 X145.744 Y137.088 E5.95233
G1 X145.232 Y137.628 E5.99688
G1 X145.098 Y137.762 E6.00822
G1 X144.395 Y138.414 E6.06563
G1 X144.271 Y138.521 E6.07543
G1 X143.584 Y139.072 E6.12815
G1 X143.437 Y139.182 E6.13915
G1 X142.71 Y139.683 E6.192
G1 X142.546 Y139.787 E6.20363
G1 X141.792 Y140.229 E6.25596
G1 X141.653 Y140.304 E6.26541
G1 X140.837 Y140.705 E6.31984
G1 X140.701 Y140.766 E6.32877
G1 X139.859 Y141.106 E6.38313
G1 X139.701 Y141.162 E6.39317
G1 X138.856 Y141.433 E6.44629
G1 X138.709 Y141.475 E6.45545
G1 X137.839 Y141.686 E6.50904
G1 X137.665 Y141.722 E6.51968
G1 X136.796 Y141.866 E6.57241
G1 X136.619 Y141.889 E6.5831
G1 X135.715 Y141.972 E6.63745
G1 X135.584 Y141.979 E6.6453
G1 X134.843 Y142 E6.68968
G1 X100.147 Y141.999 E8.76687
G1 X99.153 Y141.963 E8.82642
G1 X99.012 Y141.953 E8.83488
G1 X98.122 Y141.854 E8.88849
G1 X97.958 Y141.83 E8.89842
G1 X97.053 Y141.663 E8.95351
G1 X96.935 Y141.637 E8.96075
G1 X96.052 Y141.406 E9.01539
G1 X95.873 Y141.352 E9.02658
G1 X95.066 Y141.077 E9.07762
G1 X94.873 Y141.003 E9.09
G1 X94.084 Y140.669 E9.14129
G1 X93.918 Y140.591 E9.15227
G1 X93.11 Y140.175 E9.20668
G1 X92.984 Y140.104 E9.21534
G1 X92.22 Y139.639 E9.26889
G1 X92.075 Y139.542 E9.27933
G1 X91.345 Y139.02 E9.33306
G1 X91.216 Y138.921 E9.34279
G1 X90.529 Y138.348 E9.39635
G1 X90.412 Y138.244 E9.40572
G1 X89.872 Y137.732 E9.45027
G1 X89.727 Y137.586 E9.46259
G1 X89.075 Y136.883 E9.51999
G1 X88.969 Y136.759 E9.52976
G1 X88.412 Y136.064 E9.58308
G1 X88.318 Y135.937 E9.59254
G1 X87.817 Y135.21 E9.6454
G1 X87.71 Y135.042 E9.65732
G1 X87.271 Y134.292 E9.70935
G1 X87.194 Y134.15 E9.71902
G1 X86.795 Y133.337 E9.77324
G1 X86.733 Y133.198 E9.78235
G1 X86.391 Y132.351 E9.83704
G1 X86.336 Y132.196 E9.84689
G1 X86.065 Y131.351 E9.90001
G1 X86.024 Y131.207 E9.90898
G1 X85.809 Y130.321 E9.96356
G1 X85.778 Y130.167 E9.97296
G1 X85.634 Y129.296 E10.02582
G1 X85.61 Y129.11 E10.03704
G1 X85.528 Y128.215 E10.09085
G1 X85.521 Y128.084 E10.0987
G1 X85.5 Y127.354 E10.14243
G1 X85.5 Y107.664 E11.32123
G1 X85.536 Y106.662 E11.38126
G1 X85.547 Y106.512 E11.39026
G1 X85.646 Y105.618 E11.44411
G1 X85.669 Y105.461 E11.45361
G1 X85.837 Y104.553 E11.5089
G1 X85.862 Y104.44 E11.51582
G1 X86.097 Y103.539 E11.57157
G1 X86.142 Y103.39 E11.58089
G1 X86.423 Y102.566 E11.63301
G1 X86.497 Y102.373 E11.64538
G1 X86.829 Y101.589 E11.69636
G1 X86.909 Y101.418 E11.70766
G1 X87.325 Y100.61 E11.76207
G1 X87.396 Y100.484 E11.77073
G1 X87.861 Y99.72 E11.82427
G1 X87.958 Y99.575 E11.83471
G1 X88.481 Y98.844 E11.88853
G1 X88.579 Y98.716 E11.89818
G1 X89.152 Y98.029 E11.95173
G1 X89.256 Y97.912 E11.96111
G1 X89.768 Y97.372 E12.00566
G1 X89.909 Y97.232 E12.01755
G0 F15000 X90 Y97.147
G1 F3375 X90 Y137.853 E14.45455
G0 F15000 X92 Y139.488
G1 F3375 X92 Y95.516 E17.08708
G0 F15000 X94 Y94.374
G1 F3375 X94 Y140.629 E19.85628
G0 F15000 X96 Y141.39
G1 F3375 X96 Y93.613 E22.71661
G0 F15000 X98 Y93.167
G1 F3375 X98 Y141.836 E25.63033
G0 F15000 X100 Y141.993
G1 F3375 X100 Y93.004 E28.56322
G0 F15000 X102 Y93.001
G1 F3375 X102 Y141.999 E31.49664
G0 F15000 X104 Y141.999
G1 F3375 X104 Y93.001 E34.43007
G0 F15000 X106 Y93.001
G1 F3375 X106 Y141.999 E37.36349
G0 F15000 X108 Y141.999
G1 F3375 X108 Y93.001 E40.29692
G0 F15000 X110 Y93.001
G1 F3375 X110 Y141.999 E43.23034
G0 F15000 X112 Y141.999
G1 F3375 X112 Y93.001 E46.16376
G0 F15000 X114 Y93.001
G1 F3375 X114 Y141.999 E49.09719
G0 F15000 X116 Y141.999
G1 F3375 X116 Y93.001 E52.03061
G0 F15000 X118 Y93.001
G1 F3375 X118 Y141.999 E54.96404
G0 F15000 X120 Y141.999
G1 F3375 X120 Y93.001 E57.89746
G0 F15000 X122 Y93.001
G1 F3375 X122 Y141.999 E60.83089
G0 F15000 X124 Y141.999
G1 F3375 X124 Y93.001 E63.76431
G0 F15000 X126 Y93.001
G1 F3375 X126 Y141.999 E66.69773
G0 F15000 X128 Y141.999
G1 F3375 X128 Y93.001 E69.63116
G0 F15000 X130 Y93.001
G1 F3375 X130 Y141.999 E72.56458
G0 F15000 X132 Y141.999
G1 F3375 X132 Y93.001 E75.49801
G0 F15000 X134 Y93.001
G1 F3375 X134 Y141.999 E78.43143
G0 F15000 X136 Y141.946
G1 F3375 X136 Y93.049 E81.35881
G0 F15000 X138 Y93.349
G1 F3375 X138 Y141.647 E84.25032
G0 F15000 X140 Y141.05
G1 F3375 X140 Y93.949 E87.07018
G0 F15000 X142 Y94.887
G1 F3375 X142 Y140.108 E89.77748
G0 F15000 X144 Y138.739
G1 F3375 X144 Y96.26 E92.32062
G0 F15000 X146 Y98.205
G1 F3375 X146 Y136.789 E94.63058
G0 F15000 X148 Y133.759
G1 F3375 X148 Y101.246 E96.57708
G1 F2700 E91.57708
G0 F15000 X148.836 Y100.307
G0 X148.149 Y99.139
G0 X146.922 Y97.492
G0 X145.369 Y95.892
G0 X144.334 Y95.033
G0 X142.597 Y93.887
G0 X141.392 Y93.269
G0 X139.474 Y92.536
G0 X138.17 Y92.194
G0 X136.085 Y91.887
G0 X134.841 Y91.836
G0 X99.19 Y91.868
G0 X97.113 Y92.134
G0 X95.804 Y92.453
G0 X93.839 Y93.165
G0 X92.644 Y93.753
G0 X90.892 Y94.866
G0 X89.835 Y95.712
G0 X88.274 Y97.263
G0 X87.053 Y98.838
G0 X88 Y99.516
G1 F2700 E96.57708
G1 F3375 X88 Y135.475 E98.72988
G0 F15000 X86 Y131.108
G1 F3375 X86 Y103.91 E100.35817
G1 F2700 E95.35817
G0 F300 X86 Y103.91 Z0.324
G0 F15000 X84.732 Y104.158
G0 X84.492 Y105.46
G0 X84.336 Y107.635
G0 X84.368 Y128.31
G0 X84.634 Y130.386
G0 X84.953 Y131.696
G0 X85.665 Y133.661
G0 X85.998 Y134.337
G0 X86.851 Y135.861
G0 X88.318 Y135.936
;TIME_ELAPSED:42.736766
;LAYER:-5
;TYPE:SUPPORT
G1 F2700 E100.35817
G1 F3375 X88.411 Y136.063 E100.36995
G1 X88.968 Y136.757 E100.43655
G1 X89.074 Y136.882 E100.44881
G1 X89.726 Y137.585 E100.52057
G1 X89.871 Y137.731 E100.53596
G1 X90.412 Y138.243 E100.59171
G1 X90.528 Y138.347 E100.60337
G1 X91.216 Y138.92 E100.67037
G1 X91.344 Y139.019 E100.68248
G1 X91.895 Y139.413 E100.73317
G1 X88.095 Y135.613 E101.13534
G1 X87.817 Y135.208 E101.1721
G1 X87.71 Y135.041 E101.18694
G1 X87.271 Y134.29 E101.25204
G1 X87.194 Y134.148 E101.26413
G1 X86.794 Y133.336 E101.33187
G1 X86.733 Y133.196 E101.3433
G1 X86.39 Y132.349 E101.41168
G1 X86.336 Y132.195 E101.4239
G1 X86.317 Y132.138 E101.42839
G1 X95.353 Y141.173 E102.38465
G1 X95.873 Y141.351 E102.42578
G1 X96.051 Y141.405 E102.4397
G1 X96.934 Y141.636 E102.508
G1 X97.052 Y141.662 E102.51704
G1 X97.648 Y141.772 E102.5624
G1 X85.725 Y129.848 E103.8243
G1 X85.634 Y129.295 E103.86624
G1 X85.609 Y129.109 E103.88028
G1 X85.528 Y128.214 E103.94754
G1 X85.521 Y128.083 E103.95735
G1 X85.516 Y127.943 E103.96784
G1 X99.55 Y141.976 E105.45305
G1 X100.147 Y141.998 E105.49775
G1 X101.269 Y141.998 E105.58172
G1 X85.499 Y126.229 E107.25065
G1 X85.499 Y124.532 E107.37765
G1 X102.966 Y141.998 E109.22618
G1 X104.663 Y141.998 E109.35318
G1 X85.499 Y122.835 E111.38131
G1 X85.499 Y121.137 E111.50838
G1 X106.36 Y141.998 E113.71617
G1 X108.057 Y141.998 E113.84316
G1 X85.499 Y119.44 E116.23054
G1 X85.499 Y117.743 E116.35754
G1 X109.754 Y141.998 E118.92452
G1 X111.451 Y141.998 E119.05152
G1 X85.499 Y116.046 E121.7981
G1 X85.499 Y114.349 E121.92509
G1 X113.148 Y141.998 E124.85127
G1 X114.845 Y141.998 E124.97827
G1 X85.499 Y112.652 E128.08405
G1 X85.499 Y110.955 E128.21104
G1 X116.542 Y141.998 E131.49642
G1 X118.239 Y141.998 E131.62341
G1 X85.499 Y109.258 E135.08839
G1 X85.499 Y107.663 E135.20775
G1 X85.503 Y107.565 E135.21509
G1 X119.936 Y141.998 E138.85924
G1 X121.633 Y141.998 E138.98624
G1 X85.606 Y105.971 E142.79909
G1 X85.646 Y105.617 E142.82575
G1 X85.668 Y105.46 E142.83761
G1 X85.837 Y104.552 E142.90673
G1 X85.845 Y104.513 E142.90971
G1 X123.33 Y141.998 E146.87686
G1 X125.027 Y141.998 E147.00386
G1 X86.211 Y103.182 E151.11188
G1 X86.423 Y102.565 E151.1607
G1 X86.496 Y102.372 E151.17614
G1 X86.675 Y101.949 E151.21051
G1 X126.724 Y141.998 E155.44902
G1 X128.421 Y141.998 E155.57602
G1 X87.225 Y100.802 E159.93592
G1 X87.325 Y100.609 E159.95219
G1 X87.396 Y100.483 E159.96301
G1 X87.852 Y99.731 E160.02882
G1 X130.118 Y141.998 E164.50202
G1 X131.816 Y141.998 E164.62909
G1 X88.558 Y98.741 E169.20716
G1 X88.579 Y98.714 E169.20972
G1 X89.152 Y98.027 E169.27667
G1 X89.255 Y97.91 E169.28834
G1 X89.337 Y97.823 E169.29728
G1 X133.513 Y141.998 E173.97251
G1 X134.843 Y141.999 E174.07204
G1 X135.2 Y141.988 E174.09877
G1 X90.186 Y96.974 E178.86274
G1 X90.617 Y96.573 E178.9068
G1 X90.729 Y96.478 E178.91779
G1 X91.095 Y96.186 E178.95283
G1 X136.776 Y141.867 E183.78739
G1 X136.795 Y141.865 E183.78882
G1 X137.665 Y141.721 E183.85481
G1 X137.839 Y141.685 E183.86811
G1 X138.202 Y141.596 E183.89608
G1 X92.073 Y95.467 E188.77806
G1 X92.29 Y95.316 E188.79784
G1 X92.458 Y95.209 E188.81275
G1 X93.123 Y94.82 E188.8704
G1 X139.522 Y141.219 E193.78095
G1 X139.7 Y141.161 E193.79496
G1 X139.859 Y141.105 E193.80757
G1 X140.701 Y140.765 E193.87553
G1 X140.745 Y140.745 E193.87915
G1 X94.254 Y94.254 E198.79943
G1 X94.301 Y94.233 E198.80329
G1 X95.137 Y93.896 E198.87074
G1 X95.303 Y93.835 E198.88397
G1 X95.477 Y93.78 E198.89763
G1 X141.875 Y140.178 E203.80808
G1 X142.544 Y139.787 E203.86606
G1 X142.709 Y139.683 E203.88066
G1 X142.926 Y139.532 E203.90044
G1 X96.797 Y93.403 E208.78242
G1 X97.16 Y93.314 E208.81039
G1 X97.333 Y93.277 E208.82363
G1 X98.203 Y93.133 E208.88962
G1 X98.222 Y93.131 E208.89105
G1 X143.904 Y138.813 E213.72572
G1 X144.27 Y138.521 E213.76076
G1 X144.394 Y138.414 E213.77301
G1 X144.813 Y138.025 E213.8158
G1 X99.798 Y93.01 E218.57988
G1 X100.156 Y93 E218.60668
G1 X101.486 Y93 E218.70621
G1 X145.661 Y137.175 E223.38139
G1 X145.743 Y137.088 E223.39033
G1 X145.847 Y136.971 E223.40205
G1 X146.433 Y136.267 E223.4706
G1 X146.441 Y136.258 E223.4715
G1 X103.183 Y93 E228.04962
G1 X104.88 Y93 E228.17662
G1 X147.146 Y135.266 E232.64976
G1 X147.605 Y134.512 E232.71582
G1 X147.679 Y134.381 E232.72708
G1 X147.774 Y134.197 E232.74258
G1 X106.577 Y93 E237.10258
G1 X108.274 Y93 E237.22958
G1 X148.323 Y133.049 E241.46809
G1 X148.502 Y132.626 E241.50246
G1 X148.575 Y132.434 E241.51783
G1 X148.786 Y131.816 E241.5667
G1 X109.971 Y93 E245.67467
G1 X111.668 Y93 E245.80166
G1 X149.154 Y130.486 E249.76892
G1 X149.162 Y130.447 E249.7719
G1 X149.33 Y129.538 E249.84108
G1 X149.354 Y129.371 E249.85371
G1 X149.392 Y129.027 E249.87961
G1 X113.365 Y93 E253.69245
G1 X115.062 Y93 E253.81945
G1 X149.495 Y127.434 E257.46365
G1 X149.499 Y127.335 E257.47107
G1 X149.499 Y125.74 E257.59043
G1 X116.759 Y93 E261.05541
G1 X118.457 Y93.001 E261.18248
G1 X149.499 Y124.043 E264.46775
G1 X149.499 Y122.346 E264.59474
G1 X120.154 Y93.001 E267.70042
G1 X121.851 Y93.001 E267.82741
G1 X149.499 Y120.649 E270.75349
G1 X149.499 Y118.952 E270.88048
G1 X123.548 Y93.001 E273.62696
G1 X125.245 Y93.001 E273.75395
G1 X149.499 Y117.255 E276.32083
G1 X149.499 Y115.558 E276.44782
G1 X126.942 Y93.001 E278.8351
G1 X128.639 Y93.001 E278.9621
G1 X149.499 Y113.861 E281.16977
G1 X149.499 Y112.164 E281.29677
G1 X130.336 Y93.001 E283.32485
G1 X132.033 Y93.001 E283.45184
G1 X149.499 Y110.467 E285.30033
G1 X149.499 Y108.769 E285.4274
G1 X133.73 Y93.001 E287.09623
G1 X134.852 Y93.001 E287.18019
G1 X135.449 Y93.023 E287.2249
G1 X149.482 Y107.055 E288.71
G1 X149.478 Y106.915 E288.72048
G1 X149.468 Y106.766 E288.73166
G1 X149.387 Y105.87 E288.79898
G1 X149.364 Y105.703 E288.8116
G1 X149.273 Y105.15 E288.85354
G1 X137.35 Y93.227 E290.11539
G1 X137.946 Y93.336 E290.16073
G1 X138.064 Y93.362 E290.16977
G1 X138.947 Y93.594 E290.23809
G1 X139.126 Y93.647 E290.25206
G1 X139.645 Y93.825 E290.29312
G1 X148.681 Y102.86 E291.24938
G1 X148.657 Y102.789 E291.25499
G1 X148.607 Y102.645 E291.2664
G1 X148.266 Y101.802 E291.33445
G1 X148.199 Y101.652 E291.34674
G1 X147.795 Y100.832 E291.41515
G1 X147.725 Y100.702 E291.4262
G1 X147.288 Y99.958 E291.49077
G1 X147.182 Y99.79 E291.50564
G1 X146.903 Y99.385 E291.54244
G1 X143.104 Y95.586 E291.9445
G1 X143.647 Y95.975 E291.99449
G1 X143.783 Y96.078 E292.00725
G1 X144.47 Y96.651 E292.0742
G1 X144.587 Y96.755 E292.08592
G1 X145.127 Y97.267 E292.1416
G1 X145.261 Y97.401 E292.15579
G1 X145.924 Y98.116 E292.22876
G1 X146.02 Y98.228 E292.2398
G1 X146.571 Y98.916 E292.30576
G1 X146.68 Y99.062 E292.31939
G0 F300 X146.68 Y99.062 Z0.444
G0 F15000 X145.446 Y97.231
;TIME_ELAPSED:96.439610
;LAYER:-4
;TYPE:SUPPORT-INTERFACE
G1 F4500 X145.26 Y97.045 E292.32596
G1 X145.213 Y97 E292.32758
G1 X89.792 Y97 E293.71006
G1 X90.331 Y96.5 E293.7284
G1 X144.678 Y96.5 E295.08409
G1 X144.637 Y96.464 E295.08545
